X: 376
T: Jenny come tye my Cravat
N: "Scots Air" and "???? Nancy" handwritten next to title.
P: Longways for as many as will
%R: jig
B: "The Dancing-Master" printed by John Walsh, London
S: 7: DMDfD http://digital.nls.uk/special-collections-of-printed-music/pageturner.cfm?id=89751228 p.138
Z: 2012-2013 John Chambers <jc:trillian.mit.edu>
N: CCDM1 has a slightly different setting of the tune.
M: 6/4
L: 1/4
K: D
% - - - - - - - - - - - - - - - - - - - - - - - - -
A | FDF    A>BA | GEF G>AG | FDF    A>BA | (f/g/a)f d2 |]\
e | f/g/af g>fe | dBg f2e  | f/g/af g>fe | cAc      d2 |]
% - - - - - - - - - - - - - - - - - - - - - - - - -
%%begintext align
%% The 1. man turn the 2. wo. and the 1. wo. turn the 2. man, then cross over below the 2. cu. then
%% below the 3. cu. and lead through both cu. and cast off.
%%endtext
%%sep 1 1 300
%%begintext align
%% Then we. fall back, and the men follow them, and turn S. then men fall back, and we. follow
%% them and turn S.
%%endtext
%%sep 1 1 300
%%begintext align
%% Clap hands, side, then all four turn S. then clap hands with your own Partner, and so cast off.
%%endtext
%%sep 1 8 500

%%sep 1 1 500
%%sep 1 1 500
